X:1
T:Dança do rei David
T:Dança do rei David
T:Chula
T:Galáxia Sonora Coimbrã 2020 (A. Caetano)
C:desconhecido
Z:Galáxia Sonora Coimbrã 2020 (A. Caetano)
%%score { 1 | ( 2 3 ) }
L:1/8
Q:1/4=110
M:2/4
K:C
V:1 treble nm="Piano" snm="Pno."
V:2 bass 
V:3 bass 
V:1
"^Allegretto" [Bdg]2 [Bdg][Bdg] | [Bdg]^f/g/ a/g/f/g/ | [ce]2 [ce][ce] | g2 ge | ab/a/ ^g/a/b/a/ | %5
 ^ge z a | ^ga g/a/g/a/ | b^g ed | cB cd | ef ga | gb/a/ g/f/e/d/ | c2 c z |] c2 c/e/c/e/ | %13
 c/e/c/e/ c/e/c/e/ | [Bd]2 [Bd][Bd] | [Bg]^f ga | ba g^f | g^f/e/ d/c/B/A/ | %18
 GA/B/ c/d/e/^f/!D.C.! || [Bg-]2 [Bg] z |] %20
V:2
 G,,2 D,B,, | [G,,G,]2 [G,,D,G,][G,,D,G,] | [C,E,G,]2 [C,E,G,][C,E,G,] | %3
 [C,E,G,]2 [C,E,G,][C,E,G,] | [F,,C,F,A,]2 [C,F,A,][C,F,A,] | [E,^G,][E,G,] [E,G,][^D,C] | %6
 B,C B,/C/B,/C/ | B,E, ^G,B, | A,^G, A,2 | [C,E,G,]2 [C,E,G,][C,E,G,] | %10
 [G,,D,G,]2 [G,,D,G,][G,,D,G,] | [C,E,G,][C,E,G,] [C,E,G,]2 |] C,2 [C,E,][C,G,] | A,2 z2 | %14
 [D,G,B,]2 [D,G,B,][D,G,B,] | [D,G,B,]2 [D,G,B,][D,G,B,] | [D,A,C]2 [D,A,C][D,A,C] | %17
 [D,G,B,]2 [D,G,B,][D,G,B,] | [D,G,B,]^F,/E,/ D,/C,/B,,/A,,/ || G,,[G,,D,G,] [G,,D,G,] z |] %20
V:3
 x4 | x4 | x4 | x4 | x4 | x4 | E,2 E,E, | E,4 | E,3 [D,F,] | x4 | x4 | x4 |] x4 | %13
 C,[C,G,] [C,E,]C, | x4 | x4 | x4 | x4 | x4 || x4 |] %20

